dist/optimized/calendar--small.svg

<svg width="20" height="20" viewBox="0 0 20 20" xmlns="http://www.w3.org/2000/svg"><title>calendar--small</title><path d="M18 6H2v-.914A3.092 3.092 0 0 1 5.089 2H6v.5a.5.5 0 0 0 1 0V2h6v.5a.5.5 0 0 0 1 0V2h.911A3.092 3.092 0 0 1 18 5.086V6zm0 8.914A3.082 3.082 0 0 1 14.911 18H5.089A3.084 3.084 0 0 1 2 14.914V7h16v7.914zM14.911 1H14V.5a.5.5 0 0 0-1 0V1H7V.5a.5.5 0 0 0-1 0V1h-.911A4.092 4.092 0 0 0 1 5.086v9.828A4.084 4.084 0 0 0 5.089 19h9.822A4.081 4.081 0 0 0 19 14.914V5.086A4.091 4.091 0 0 0 14.911 1z" fill-rule="evenodd"/></svg>

<svg width="20" height="20" viewBox="0 0 20 20" xmlns="http://www.w3.org/2000/svg"><title>calendar--small</title><path d="M18 6H2V5c0-1.654 1.346-3 3-3h1v.5a.5.5 0 0 0 1 0V2h6v.5a.5.5 0 0 0 1 0V2h1c1.654 0 3 1.346 3 3v1zm0 9c0 1.654-1.346 3-3 3H5c-1.654 0-3-1.346-3-3V7h16v8zM15 1h-1V.5a.5.5 0 0 0-1 0V1H7V.5a.5.5 0 0 0-1 0V1H5a4 4 0 0 0-4 4v10a4 4 0 0 0 4 4h10a4 4 0 0 0 4-4V5a4 4 0 0 0-4-4z" fill-rule="evenodd"/></svg>
